X:1
T:Windham, LM
T:Windham, LM
T:Daniel Read, 1785
T:Public Domain Courtesy of the Cyber Hymnal™
C:Daniel Read, 1785
Z:Public Domain
Z:Courtesy of the Cyber Hymnal™
%%score ( 1 2 ) ( 3 4 )
L:1/8
Q:1/4=100
M:3/4
K:F
V:1 treble 
V:2 treble 
V:3 bass 
V:4 bass 
V:1
 D2 | [DF][CG] [CA]2 [DA]2 | [^CF][CE] [A,D]2 D2 | [DF][^CE] [DF]2 [=CA]2 | [CG][DF] [^CE]2 [CE]2 | %5
 [DF][EG] [CA]2 [Fd]2 | [Gd][E^c] [Fd]2 [FA]2 | [FA][GB] [CA][EG] | [DF]2 [^CE]2 | [A,D]4 |] %10
V:2
 D2 | x6 | x4 D2 | x6 | x6 | x6 | x6 | x4 | x4 | x4 |] %10
V:3
 [D,F,]2 | [D,A,][E,G,] F,2 [D,F,]2 | [A,,A,][A,,A,] [D,F,]2 [D,F,]2 | [D,A,][A,,A,] [D,A,]2 F,2 | %4
 [E,G,][D,A,] [A,,A,]2 [A,,A,]2 | [D,A,][C,C] [F,A,]2 [D,A,]2 | [G,B,]A, [D,A,]2 [D,D]2 | %7
 [D,A,][E,G,] (A,/B,/) (C/B,/) | [F,A,]2 [A,,A,]2 | [D,F,]4 |] %10
V:4
 x2 | x2 F,2 x2 | x6 | x4 F,2 | x6 | x6 | x A, x4 | x2 F,C, | x4 | x4 |] %10

